images/search-button.svg

<svg xmlns="http://www.w3.org/2000/svg" width="16" height="16" fill="none"><g clip-path="url(#a)"><path fill="#000" d="m15.7 14.3-3.1-3.1C13.5 10 14 8.6 14 7c0-3.9-3.1-7-7-7S0 3.1 0 7s3.1 7 7 7c1.6 0 3-.5 4.2-1.4l3.1 3.1c.2.2.4.3.7.3.6 0 1-.4 1-1 0-.2-.1-.5-.3-.7ZM2 7c0-2.8 2.2-5 5-5s5 2.2 5 5-2.2 5-5 5-5-2.2-5-5Z"/></g><defs><clipPath id="a"><path fill="#fff" d="M0 0h16v16H0z"/></clipPath></defs></svg>

<svg width="16" height="16" viewBox="0 0 16 16" fill="none" xmlns="http://www.w3.org/2000/svg">
<g clip-path="url(#clip0_48677_942)">
<path d="M15.7 14.3L12.6 11.2C13.5 10 14 8.6 14 7C14 3.1 10.9 0 7 0C3.1 0 0 3.1 0 7C0 10.9 3.1 14 7 14C8.6 14 10 13.5 11.2 12.6L14.3 15.7C14.5 15.9 14.7 16 15 16C15.6 16 16 15.6 16 15C16 14.8 15.9 14.5 15.7 14.3ZM2 7C2 4.2 4.2 2 7 2C9.8 2 12 4.2 12 7C12 9.8 9.8 12 7 12C4.2 12 2 9.8 2 7Z" fill="black"/>
</g>
<defs>
<clipPath id="clip0_48677_942">
<rect width="16" height="16" fill="white"/>
</clipPath>
</defs>
</svg>
